X: 24
T: Miss Willmot's Maggot
P: P.12 #2
%R: march, reel
B: "Twenty Four Favourite Dances for the Year 1784", Thomas Straight, ed. p.12 #2
F: http://www.vwml.org/browse/browse-collections-dance-tune-books/browse-straights1784#
Z: 2014 John Chambers <jc:trillian.mit.edu>
M: 2/4
L: 1/8
K: G
% - - - - - - - - - - - - - - - - - - - - - - - - - - - - -
|:\
d>Bg2 | d>Bg2 | d>Bc>A | BGG2 |\
dBg2 | dBg2 | fa A^c | d4 :|
|:\
dBe2 | cAd2 | BGcB | AFD2 |\
dBg2 | dBg2 | ecBA | G4 :|
% - - - - - - - - - - Dance description - - - - - - - - - -
%%begintext align
%% Hand a cross .|. and back again :|. cross over back
%% to back .|: foot it right Hand and left :|:
%%endtext
